public/images/icons/40x40/message_40_purple.svg

<svg height="40" viewBox="0 0 40 40" width="40" xmlns="http://www.w3.org/2000/svg"><path d="m21.5234373 0h-19.04687463c-1.36713969.00154963-2.47504747 1.13463714-2.47656267 2.53284818v12.93430362c.0015152 1.3982111 1.10942298 2.5312986 2.47656267 2.5328482h19.04687463c1.3671397-.0015496 2.4750475-1.1346371 2.4765627-2.5328482v-12.93430362c-.0015152-1.39821104-1.109423-2.53129855-2.4765627-2.53284818zm1.1432294 2.53284818v12.93430362c-.00122.0624848-.0073815.1247662-.018424.1862346l-6.5054374-6.65328549 6.5054614-6.65348727c.0110345.06146904.0171879.12375043.0184.18623454zm-1.1432294-1.16921182c.0611009.00123967.1220036.00753292.182112.01881819l-8.638232 8.83469725c-.5899013.6016508-1.5446026.6016508-2.134504 0l-8.63836263-8.83469725c.06010856-.01128449.12101117-.01757774.182112-.01881819zm-20.17167997 14.28975004c-.01104256-.0614684-.01720399-.1237498-.018424-.1862346v-12.93430362c.00121207-.06248411.00736548-.1247655.0184-.18623454l6.50550934 6.65343545zm1.12480534.9829772c-.06110083-.0012404-.12200344-.0075337-.182112-.0188181l6.50550133-6.65336186 1.19002133 1.21710276c1.11089307 1.1335205 2.90929097 1.1335205 4.02018397 0l1.1899574-1.21710276 6.5054346 6.65336186c-.0601085.0112844-.1210111.0175777-.182112.0188181z" fill="#1e1169" transform="translate(8 11)"/></svg>

<svg xmlns="http://www.w3.org/2000/svg" width="40" height="40" viewBox="0 0 40 40">
  <path fill="#1E1169" d="M21.5234373,0 L2.47656267,0 C1.10942298,0.00154963213 0.00151519586,1.13463714 0,2.53284818 L0,15.4671518 C0.00151519586,16.8653629 1.10942298,17.9984504 2.47656267,18 L21.5234373,18 C22.890577,17.9984504 23.9984848,16.8653629 24,15.4671518 L24,2.53284818 C23.9984848,1.13463714 22.890577,0.00154963213 21.5234373,0 Z M22.6666667,2.53284818 L22.6666667,15.4671518 C22.6654467,15.5296366 22.6592852,15.591918 22.6482427,15.6533864 L16.1428053,9.00010091 L22.6482667,2.34661364 C22.6593012,2.40808268 22.6654546,2.47036407 22.6666667,2.53284818 Z M21.5234373,1.36363636 C21.5845382,1.36487603 21.6454409,1.37116928 21.7055493,1.38245455 L13.0673173,10.2171518 C12.477416,10.8188026 11.5227147,10.8188026 10.9328133,10.2171518 L2.29445067,1.38245455 C2.35455923,1.37117006 2.41546184,1.36487681 2.47656267,1.36363636 L21.5234373,1.36363636 Z M1.35175733,15.6533864 C1.34071477,15.591918 1.33455334,15.5296366 1.33333333,15.4671518 L1.33333333,2.53284818 C1.3345454,2.47036407 1.34069881,2.40808268 1.35173333,2.34661364 L7.85724267,9.00004909 L1.35175733,15.6533864 Z M2.47656267,16.6363636 C2.41546184,16.6351232 2.35455923,16.6288299 2.29445067,16.6175455 L8.799952,9.96418364 L9.98997333,11.1812864 C11.1008664,12.3148069 12.8992643,12.3148069 14.0101573,11.1812864 L15.2001147,9.96418364 L21.7055493,16.6175455 C21.6454408,16.6288299 21.5845382,16.6351232 21.5234373,16.6363636 L2.47656267,16.6363636 Z" transform="translate(8 11)"/>
</svg>
